pictures/payme.svg

<svg width="1080" height="315" viewBox="0 0 1080 315" fill="none" xmlns="http://www.w3.org/2000/svg">
  <g clip-path="url(#clip0_897_18294)">
  <path fill-rule="evenodd" clip-rule="evenodd" d="M1073.93 130.486C1081.58 141.433 1082.35 158.686 1074.23 172.057C1066.98 183.999 1023.59 229.825 1009.47 244.551C997.226 257.342 980.706 270.151 964.446 270.151H623.992C577.98 270.151 575.204 254.551 575.204 219.281V76.2079C575.204 40.1859 585.835 29.7739 617.256 29.7739H964.446C980.706 29.7739 995.176 38.0739 1011.8 54.9739C1025.91 69.3149 1068.06 122.064 1073.93 130.486Z" fill="#33CCCC"/>
  <path fill-rule="evenodd" clip-rule="evenodd" d="M1073.93 130.486C1081.58 141.433 1082.35 158.686 1074.23 172.057C1066.98 183.999 1023.59 229.825 1009.47 244.551C997.226 257.342 980.706 270.151 964.446 270.151H623.992C577.98 270.151 575.204 254.551 575.204 219.281V76.2079C575.204 40.1859 585.835 29.7739 617.256 29.7739H964.446C980.706 29.7739 995.176 38.0739 1011.8 54.9739C1025.91 69.3149 1068.06 122.064 1073.93 130.486Z" fill="url(#paint0_linear_897_18294)"/>
  <path fill-rule="evenodd" clip-rule="evenodd" d="M652.384 85.095V84.153C652.384 79.5531 651.998 75.0061 644.461 75.0061H616.008C609.395 75.0061 608.977 78.6631 608.977 84.345V122.156C622.828 102.351 638.185 93.149 652.384 85.095ZM843.256 221.721V219.691H843.276V128.686C843.276 90.522 826.499 71.4421 792.946 71.4461C783.647 71.3586 774.507 73.8573 766.546 78.6631C758.559 83.477 750.885 90.2014 743.524 98.836C739.906 89.4527 734.45 82.542 727.156 78.1041C719.861 73.6661 710.409 71.4467 698.801 71.4461C685.365 71.4461 669.744 76.1531 658.672 85.261C656.195 87.742 608.972 124.911 608.972 163.085V221.348C608.972 223.201 608.078 230.231 615.955 230.231H645.576C654.784 230.231 653.885 224.201 653.885 221.721V127.489C658.885 120.857 669.101 104.478 685.694 104.478C692.062 104.478 696.649 106.633 699.453 110.944C702.257 115.255 703.665 122.482 703.677 132.627V206.227H703.642V221.35C703.642 223.203 702.748 230.233 710.622 230.233H739.865C749.079 230.233 748.18 224.203 748.18 221.723V219.693H748.214V127.493C753.571 120.861 764.245 104.482 780.014 104.482C786.502 104.482 791.181 106.637 794.052 110.948C796.922 115.259 798.356 122.486 798.352 132.631V206.231H798.322V221.354C798.322 223.207 797.432 230.237 805.312 230.237H834.942C844.156 230.233 843.256 224.201 843.256 221.721ZM1006.39 184.721C995.856 213.056 970.626 228.891 939.366 228.891C894.086 228.891 864.176 198.036 864.176 151.759C864.176 106.04 895.226 72.9011 937.956 72.9011C980.226 72.9011 1008.58 102.339 1010.38 149.759C1010.61 155.818 1008.84 161.171 1001.27 161.171H905.186C905.756 186.599 918.016 200.315 939.656 200.315C952.856 200.315 960.676 194.624 967.486 183.471C970.446 178.618 976.516 178.888 976.516 178.888H1001.27C1005.31 178.885 1007.1 182.833 1006.39 184.718V184.721ZM937.956 102.321C919.996 102.321 907.466 114.89 905.186 135.471H969.566C967.856 117.469 958.166 102.321 937.956 102.321Z" fill="white"/>
  <path fill-rule="evenodd" clip-rule="evenodd" d="M176.842 31.0816C173.036 25.0167 168.099 19.7408 162.3 15.5416C156.501 11.4673 150.133 8.27275 143.4 6.06161C135.922 3.62583 128.198 2.02115 120.369 1.27661C111.412 0.395798 102.417 -0.0297442 93.4177 0.00161423H14.5477C7.45567 0.00161423 0.0216711 4.65963 0.0216711 13.4436V141.334C10.0127 162.649 29.4747 185.278 51.6017 196.093V170.729C51.6017 157.345 61.6807 154.355 65.8497 154.355H89.1697C121.292 154.355 145.809 147.609 162.721 134.118C179.633 120.646 188.088 100.635 188.088 74.0846C188.136 66.413 187.246 58.7643 185.439 51.3086C183.642 44.1603 180.741 37.336 176.842 31.0816ZM130.882 96.7626C128.159 101.489 124.097 105.303 119.21 107.725C113.913 110.252 108.191 111.768 102.338 112.195C95.9637 112.763 89.3813 113.048 82.5907 113.049H60.4297C55.0087 113.049 51.6017 108.636 51.6017 102.126V49.8386C51.6017 43.9746 55.4247 41.5146 60.0087 41.5146H82.5907C89.9467 41.5146 96.845 41.7269 103.286 42.1516C109.083 42.416 114.776 43.7905 120.056 46.2006C124.762 48.4408 128.657 52.0861 131.204 56.6336C133.888 61.3103 135.23 67.9103 135.232 76.4336C135.232 85.0876 133.782 91.864 130.882 96.7626ZM51.6017 204.358C27.2657 194.634 10.9507 183.034 0.0216711 171.534V233.274C0.0216711 233.274 -0.878336 243.343 8.92166 243.343H43.3307C52.7697 243.343 51.6057 233.274 51.6057 233.274V204.358H51.6017ZM539.245 67.2806H508.364C502.088 67.2806 497.953 69.9186 495.464 76.8206C492.975 83.7226 460.243 174.885 460.243 174.885C460.243 174.885 428.932 85.6056 426.468 78.6926C424.004 71.7796 419.958 67.2806 412.668 67.2806H384.293C374.283 67.2806 374.283 75.1436 375.524 78.2616C376.531 80.7816 415.389 187.288 430.189 227.862C433.679 237.442 435.057 240.324 435.165 243.873C435.273 247.422 431.665 254.873 429.172 259.149C428.027 261.1 426.712 262.948 425.243 264.669C454.257 255.982 487.698 224.46 504.991 190.311C522.091 142.72 544.641 79.8526 545.619 76.6366C547.192 71.4276 547.176 67.2806 539.245 67.2806ZM402.886 273.725C400.205 273.678 397.529 273.485 394.87 273.146C391.615 272.715 385.524 273.323 385.524 278.657V302.501C385.524 311.601 389.875 312.208 392.27 312.747C399.476 314.249 406.825 314.959 414.186 314.865C423.942 314.865 432.43 313.09 439.652 309.541C446.944 305.932 453.442 300.902 458.763 294.746C464.63 287.892 469.588 280.309 473.514 272.186C477.825 263.458 481.963 253.843 485.929 243.341C485.929 243.341 487.629 238.595 490.429 230.82C481.911 239.419 441.763 277.49 402.886 273.725ZM356.511 95.5856C354.835 91.6004 352.546 87.9019 349.727 84.6246C346.918 81.4786 343.703 78.721 340.166 76.4246C336.349 73.9431 332.3 71.8395 328.076 70.1436C323.762 68.4591 319.326 67.1084 314.806 66.1036C309.667 64.9782 304.453 64.2312 299.206 63.8686C293.539 63.4466 287.169 63.2339 280.096 63.2306C233.314 63.2306 206.676 78.0163 200.181 107.588C198.069 116.764 207.146 117.303 207.146 117.303H235.925C243.438 117.303 243.115 114.882 246.761 108.088C248.074 104.391 250.437 101.157 253.561 98.7826C259.084 94.5279 267.362 92.4003 278.396 92.3996C289.012 92.3996 296.724 94.4553 301.534 98.5666C306.343 102.678 309.173 108.923 310.025 117.303C310.025 127.02 306.994 133.503 295.248 133.503C266.611 132.463 235.838 135.703 218.506 145.64C201.174 155.577 191.376 175.004 191.376 195.867C191.376 204.377 192.897 211.828 195.941 218.221C198.89 224.488 203.25 229.989 208.679 234.291C214.44 238.784 221.043 242.078 228.098 243.978C236.117 246.177 244.402 247.254 252.717 247.178C265.172 247.178 276.176 245.616 285.729 242.492C295.28 239.374 310.06 229.092 311.942 227.592V233.073C311.942 238.504 313.595 243.348 320.076 243.348H353.542C360.316 243.348 361.822 238.504 361.822 232.543V129.442C361.881 123.033 361.456 116.629 360.551 110.284C359.833 105.233 358.475 100.294 356.511 95.5856ZM310.876 196.672C310.876 196.672 302.234 214.623 271.392 214.623C262.906 214.623 256.008 212.708 250.697 208.878C245.385 205.048 242.731 199.086 242.735 190.994C242.735 180.484 247.052 173.065 255.688 168.738C264.315 164.414 281.588 161.944 294.531 162.247C307.474 162.55 310.876 170.729 310.876 176.376V196.676V196.672Z" fill="#ffffff"/>
  </g>
  <defs>
  <linearGradient id="paint0_linear_897_18294" x1="1246.79" y1="99.1789" x2="1180.69" y2="498.405" gradientUnits="userSpaceOnUse">
  <stop offset="0.47231" stop-color="#00CCCC"/>
  <stop offset="1" stop-color="#3399FF"/>
  </linearGradient>
  <clipPath id="clip0_897_18294">
  <rect width="1080" height="315" fill="white"/>
  </clipPath>
  </defs>
  </svg>

<svg width="1080" height="315" fill="none" xmlns="http://www.w3.org/2000/svg"><g clip-path="url(#a)" fill-rule="evenodd" clip-rule="evenodd"><path d="M1073.93 130.486c7.65 10.947 8.42 28.2.3 41.571-7.25 11.942-50.64 57.768-64.76 72.494-12.244 12.791-28.764 25.6-45.024 25.6H623.992c-46.012 0-48.788-15.6-48.788-50.87V76.208c0-36.022 10.631-46.434 42.052-46.434h347.19c16.26 0 30.73 8.3 47.354 25.2 14.11 14.34 56.26 67.09 62.13 75.512Z" fill="#3CC"/><path d="M1073.93 130.486c7.65 10.947 8.42 28.2.3 41.571-7.25 11.942-50.64 57.768-64.76 72.494-12.244 12.791-28.764 25.6-45.024 25.6H623.992c-46.012 0-48.788-15.6-48.788-50.87V76.208c0-36.022 10.631-46.434 42.052-46.434h347.19c16.26 0 30.73 8.3 47.354 25.2 14.11 14.34 56.26 67.09 62.13 75.512Z" fill="url(#b)"/><path d="M652.384 85.095v-.942c0-4.6-.386-9.147-7.923-9.147h-28.453c-6.613 0-7.031 3.657-7.031 9.339v37.811c13.851-19.805 29.208-29.007 43.407-37.061Zm190.872 136.626v-2.03h.02v-91.005c0-38.164-16.777-57.244-50.33-57.24a50.17 50.17 0 0 0-26.4 7.217c-7.987 4.814-15.661 11.538-23.022 20.173-3.618-9.383-9.074-16.294-16.368-20.732-7.295-4.438-16.747-6.657-28.355-6.658-13.436 0-29.057 4.707-40.129 13.815-2.477 2.481-49.7 39.65-49.7 77.824v58.263c0 1.853-.894 8.883 6.983 8.883h29.621c9.208 0 8.309-6.03 8.309-8.51v-94.232c5-6.632 15.216-23.011 31.809-23.011 6.368 0 10.955 2.155 13.759 6.466 2.804 4.311 4.212 11.538 4.224 21.683v73.6h-.035v15.123c0 1.853-.894 8.883 6.98 8.883h29.243c9.214 0 8.315-6.03 8.315-8.51v-2.03h.034v-92.2c5.357-6.632 16.031-23.011 31.8-23.011 6.488 0 11.167 2.155 14.038 6.466 2.87 4.311 4.304 11.538 4.3 21.683v73.6h-.03v15.123c0 1.853-.89 8.883 6.99 8.883h29.63c9.214-.004 8.314-6.036 8.314-8.516Zm163.134-37c-10.534 28.335-35.764 44.17-67.024 44.17-45.28 0-75.19-30.855-75.19-77.132 0-45.719 31.05-78.858 73.78-78.858 42.27 0 70.624 29.438 72.424 76.858.23 6.059-1.54 11.412-9.11 11.412h-96.084c.57 25.428 12.83 39.144 34.47 39.144 13.2 0 21.02-5.691 27.83-16.844 2.96-4.853 9.03-4.583 9.03-4.583h24.754c4.04-.003 5.83 3.945 5.12 5.83v.003Zm-68.434-82.4c-17.96 0-30.49 12.569-32.77 33.15h64.38c-1.71-18.002-11.4-33.15-31.61-33.15ZM176.842 31.082a55.819 55.819 0 0 0-14.542-15.54 71.895 71.895 0 0 0-18.9-9.48 107.105 107.105 0 0 0-23.031-4.785A265.917 265.917 0 0 0 93.418.002h-78.87C7.456.002.022 4.66.022 13.444v127.89c9.99 21.315 29.453 43.944 51.58 54.759v-25.364c0-13.384 10.079-16.374 14.248-16.374h23.32c32.122 0 56.639-6.746 73.551-20.237 16.912-13.472 25.367-33.483 25.367-60.033a94.193 94.193 0 0 0-2.649-22.776 70.919 70.919 0 0 0-8.597-20.227Zm-45.96 65.68a27.63 27.63 0 0 1-11.672 10.963 47.153 47.153 0 0 1-16.872 4.47 222.88 222.88 0 0 1-19.747.854H60.43c-5.421 0-8.828-4.413-8.828-10.923V49.839c0-5.864 3.823-8.324 8.407-8.324H82.59c7.356 0 14.254.212 20.695.637a45.364 45.364 0 0 1 16.77 4.049 25.185 25.185 0 0 1 11.148 10.433c2.684 4.676 4.026 11.276 4.028 19.8 0 8.654-1.45 15.43-4.35 20.329Zm-79.28 107.596c-24.336-9.724-40.651-21.324-51.58-32.824v61.74s-.9 10.069 8.9 10.069H43.33c9.439 0 8.275-10.069 8.275-10.069v-28.916h-.004ZM539.245 67.281h-30.881c-6.276 0-10.411 2.638-12.9 9.54-2.489 6.902-35.221 98.064-35.221 98.064s-31.311-89.28-33.775-96.192c-2.464-6.913-6.51-11.412-13.8-11.412h-28.375c-10.01 0-10.01 7.863-8.769 10.98 1.007 2.52 39.865 109.027 54.665 149.601 3.49 9.58 4.868 12.462 4.976 16.011.108 3.549-3.5 11-5.993 15.276a38.587 38.587 0 0 1-3.929 5.52c29.014-8.687 62.455-40.209 79.748-74.358 17.1-47.591 39.65-110.458 40.628-113.674 1.573-5.21 1.557-9.356-6.374-9.356ZM402.886 273.725a73.581 73.581 0 0 1-8.016-.579c-3.255-.431-9.346.177-9.346 5.511v23.844c0 9.1 4.351 9.707 6.746 10.246a101.079 101.079 0 0 0 21.916 2.118c9.756 0 18.244-1.775 25.466-5.324a61.061 61.061 0 0 0 19.111-14.795 104.868 104.868 0 0 0 14.751-22.56c4.311-8.728 8.449-18.343 12.415-28.845 0 0 1.7-4.746 4.5-12.521-8.518 8.599-48.666 46.67-87.543 42.905Zm-46.375-178.14a41.45 41.45 0 0 0-6.784-10.96 47.477 47.477 0 0 0-9.561-8.2 70.097 70.097 0 0 0-12.09-6.281 90.44 90.44 0 0 0-13.27-4.04 107.6 107.6 0 0 0-15.6-2.235c-5.667-.422-12.037-.635-19.11-.638-46.782 0-73.42 14.785-79.915 44.357-2.112 9.176 6.965 9.715 6.965 9.715h28.779c7.513 0 7.19-2.421 10.836-9.215a20.165 20.165 0 0 1 6.8-9.305c5.523-4.255 13.801-6.383 24.835-6.383 10.616 0 18.328 2.055 23.138 6.167 4.809 4.111 7.639 10.356 8.491 18.736 0 9.717-3.031 16.2-14.777 16.2-28.637-1.04-59.41 2.2-76.742 12.137-17.332 9.937-27.13 29.364-27.13 50.227 0 8.51 1.521 15.961 4.565 22.354a44.892 44.892 0 0 0 12.738 16.07 54.712 54.712 0 0 0 19.419 9.687 89.98 89.98 0 0 0 24.619 3.2c12.455 0 23.459-1.562 33.012-4.686 9.551-3.118 24.331-13.4 26.213-14.9v5.481c0 5.431 1.653 10.275 8.134 10.275h33.466c6.774 0 8.28-4.844 8.28-10.805V129.442a127.372 127.372 0 0 0-1.271-19.158 60.18 60.18 0 0 0-4.04-14.698Zm-45.635 101.087s-8.642 17.951-39.484 17.951c-8.486 0-15.384-1.915-20.695-5.745-5.312-3.83-7.966-9.792-7.962-17.884 0-10.51 4.317-17.929 12.953-22.256 8.627-4.324 25.9-6.794 38.843-6.491 12.943.303 16.345 8.482 16.345 14.129v20.3-.004Z" fill="#fff"/></g><defs><linearGradient id="b" x1="1246.79" y1="99.179" x2="1180.69" y2="498.405" gradientUnits="userSpaceOnUse"><stop offset=".472" stop-color="#0CC"/><stop offset="1" stop-color="#39F"/></linearGradient><clipPath id="a"><path fill="#fff" d="M0 0h1080v315H0z"/></clipPath></defs></svg>
